src/topics/icons/elo.svg

<svg height="256" preserveAspectRatio="xMidYMid" viewBox="0 0 256 256" width="256" xmlns="http://www.w3.org/2000/svg"><g fill-rule="evenodd"><path d="m128 0c70.692254 0 128 57.307746 128 128 0 70.692988-57.307746 128-128 128s-128-57.307012-128-128c0-70.692254 57.307746-128 128-128" fill="#0e0e11"/><path d="m90.021043 118.791335-39.261891 16.918739c-.0608825-.676309-.094625-1.360687-.094625-2.053134 0-12.419301 10.067622-22.486923 22.486923-22.486923 6.719083 0 12.7493865 2.948768 16.869593 7.621318zm-16.869593-24.438097c18.5266245 0 34.056068 12.819072 38.210017 30.071564l-15.841192 6.926671-.0036675-.033009-16.206487 7.120321-38.8775245 16.998693c-4.1590831-6.234957-6.5848481-13.72424-6.5848481-21.780538 0-21.707187 17.5965156-39.303702 39.3037021-39.303702zm27.463885 67.418957c-14.0726645 13.356745-32.6895125 14.667553-49.0478395 4.736367l9.242407-14.052127c9.308424 5.563783 18.6593925 4.661548 28.053639-2.71404zm16.003301-9.728733-.099026-74.325823h14.081468v72.3189c0 .693914.085822 1.304939.996126 1.658498l12.249856 4.764241-5.519037 14.349937-14.349937-6.071381c-5.441284-2.302533-7.349914-5.638602-7.35945-12.694372z" fill="#fff"/><path d="m169.639977 150.793536c-5.278441-4.104069-8.676859-10.509204-8.676859-17.713147 0-6.404401 2.688366-12.177237 6.992687-16.264435l-9.094968-14.740172c-9.142648 7.243553-15.013777 18.434934-15.013777 31.004607 0 13.548195 6.815909 25.500975 17.203347 32.627164z" fill="#2091c3"/><path d="m175.80525 111.968825c2.370016-.852355 4.924882-1.31961 7.589043-1.31961 9.604033 0 17.793833 6.038373 20.992733 14.523782l17.427805-1.456046c-4.206762-17.319977-19.806624-30.18306-38.420538-30.18306-5.259371 0-10.274476 1.0357365-14.864872 2.899622z" fill="#faec32"/><path d="m205.797593 134.167473c-.567748 11.883095-10.380103 21.344092-22.403301 21.344092-1.885158 0-3.713834-.236195-5.462556-.673376l-6.836447 15.828722c3.872275 1.26533 8.003484 1.959978 12.299003 1.959978 21.295679 0 38.650865-16.835118 39.504688-37.921009z" fill="#d0352a"/></g></svg>

<?xml version="1.0" encoding="UTF-8"?>
<svg width="256px" height="256px" viewBox="0 0 256 256" version="1.1" xmlns="http://www.w3.org/2000/svg" xmlns:xlink="http://www.w3.org/1999/xlink" preserveAspectRatio="xMidYMid">
	<g fill-rule="evenodd">
		<path d="M128,0 C198.692254,0 256,57.307746 256,128 C256,198.692988 198.692254,256 128,256 C57.307746,256 0,198.692988 0,128 C0,57.307746 57.307746,0 128,0" fill="#0E0E11"></path>
		<path d="M90.021043,118.791335 L50.759152,135.710074 C50.6982695,135.033765 50.664527,134.349387 50.664527,133.65694 C50.664527,121.237639 60.732149,111.170017 73.15145,111.170017 C79.870533,111.170017 85.9008365,114.118785 90.021043,118.791335 Z M73.15145,94.353238 C91.6780745,94.353238 107.207518,107.17231 111.361467,124.424802 L95.520275,131.351473 L95.5166075,131.318464 L79.3101205,138.438785 L40.432596,155.437478 C36.2735129,149.202521 33.8477479,141.713238 33.8477479,133.65694 C33.8477479,111.949753 51.4442635,94.353238 73.15145,94.353238 Z M100.615335,161.772195 C86.5426705,175.12894 67.9258225,176.439748 51.5674955,166.508562 L60.8099025,152.456435 C70.1183265,158.020218 79.469295,157.117983 88.8635415,149.742395 L100.615335,161.772195 Z M116.618636,152.043462 L116.51961,77.717639 L130.601078,77.717639 L130.601078,150.036539 C130.601078,150.730453 130.6869,151.341478 131.597204,151.695037 L143.84706,156.459278 L138.328023,170.809215 L123.978086,164.737834 C118.536802,162.435301 116.628172,159.099232 116.618636,152.043462 Z" fill="#FFFFFF"></path>
		<path d="M169.639977,150.793536 C164.361536,146.689467 160.963118,140.284332 160.963118,133.080389 C160.963118,126.675988 163.651484,120.903152 167.955805,116.815954 L158.860837,102.075782 C149.718189,109.319335 143.84706,120.510716 143.84706,133.080389 C143.84706,146.628584 150.662969,158.581364 161.050407,165.707553 L169.639977,150.793536" fill="#2091C3"></path>
		<path d="M175.80525,111.968825 C178.175266,111.11647 180.730132,110.649215 183.394293,110.649215 C192.998326,110.649215 201.188126,116.687588 204.387026,125.172997 L221.814831,123.716951 C217.608069,106.396974 202.008207,93.533891 183.394293,93.533891 C178.134922,93.533891 173.119817,94.5696275 168.529421,96.433513 L175.80525,111.968825" fill="#FAEC32"></path>
		<path d="M205.797593,134.167473 C205.229845,146.050568 195.41749,155.511565 183.394292,155.511565 C181.509134,155.511565 179.680458,155.27537 177.931736,154.838189 L171.095289,170.666911 C174.967564,171.932241 179.098773,172.626889 183.394292,172.626889 C204.689971,172.626889 222.045157,155.791771 222.89898,134.70588 L205.797593,134.167473" fill="#D0352A"></path>
	</g>
</svg>
